X:195
T: Reddan's
C: P.Reddan
S: "Knockanalban"
L: 1/8
M: 4/4
R: reel
K: Edor
D|B,EEF GFEG|FDAD BDAD|Beef gfeg|fdBc dcdB|
FAdA Bd (3dcd|BdAF DEFD|EFGA BAdA|1 DEFD E3 :|2\
DEFD EFGA||
(3Bcd ef gfeg|fdad bdad|gfeg fdBc|dABd AdFA|
GFGB AFDF|GFED EB,B,D|DEFA BAdA|DEFD E4 :|
